X: 6
T: Mazurka in A Minor, Op. 7, No. 2
C: Frederic Chopin
%%abc-version 2.0
%%abcx-abcm2ps-target-version 5.9.1 (29 Sep 2008)
%%abc-creator hum2abc beta
%%abcx-conversion-date 2021/01/17 12:55:00
%%abc-edited-by Craig Stuart Sapp
%%abcx-initial-encoding-date 2005/02/20/
%%gracespace 0 6 6
%%humdrum-veritas 1265749892
%%humdrum-veritas-data 2251025497
%%linebreak <none>
%%barnumbers 0
L: 1/4
M: 3/4
N: Derived from mazurka07-2.krn
Q: "Vivo, ma non troppo" 1/4=160
%%staves {1 2}
V: 1 clef=treble
V: 2 clef=bass
K: C
[V:1] e [I:setbarnb 1]| 
[V:2] z | 
[V:1] f/>e/df | 
[V:2] z.[A,DF].[A,DF] | 
[V:1] !accent!f2e | 
[V:2] z.[A,CF].[A,CE] | 
[V:1] (3d//e//d//^c/ d/^d/e/B/ | 
[V:2] z.[E,^G,D].[E,G,D] | 
[V:1] =d2c | 
[V:2] zA,,[E,C] | 
[V:1] (3A/B/A/^GA | 
[V:2] z[E,C]A,, | 
[V:1] .B!accent!e2 | 
[V:2] z[E,=G,B,]B,, | 
[V:1] B/=G/E/B/^D | 
[V:2] z[B,,G,B,][B,,^F,B,] | 
[V:1] E2e | 
[V:2] [E,G,B,]E,,z | 
[V:1] f/>e/df | 
[V:2] z.[A,DF].[A,DF] | 
[V:1] !accent!f2e | 
[V:2] z.[A,CF].[A,CE] | 
[V:1] (3d//e//d//^c/ d/^d/e/B/ {/B} | 
[V:2] z.[E,^G,D].[E,G,D] | 
[V:1] !accent!=d2c | 
[V:2] z.[F,A,D].[F,A,C] | 
[V:1] (3A/_B/A/GA | 
[V:2] z[F,C_E][F,CE] | 
[V:1] _Bd!fermata!z & DFx | 
[V:2] _B,2!fermata!z | 
[V:1] !accent!A/>^G/EG & xDD | 
[V:2] z.[E,=B,].[E,B,] | 
[V:1] A2 & Cz :|]|:  
[V:2] [A,,E,]A,,, :|]|:  
[V:1] B [I:setbarnb 17]| 
[V:2] z | 
[V:1] c/d/_ee3//=f// | 
[V:2] z.[_A,C^F].[A,CF] | 
[V:1] !accent!_e2d | 
[V:2] z.[G,C^F].[G,B,G] | 
[V:1] c/d/_ee3//=f// | 
[V:2] z[_A,C^F][A,CF] | 
[V:1] !accent!_e2d | 
[V:2] z.[_A,_C=F].[A,_B,F] | 
[V:1] _b2^c | 
[V:2] z[G,_B,F][G,B,=E] | 
[V:1] a2=c | 
[V:2] z[G,A,E][^F,A,_E] | 
[V:1] _a2=B | 
[V:2] z[=F,_A,_E][F,A,D] | 
[V:1] g>_B=A/e/ | 
[V:2] z[=E,G,D][E,G,^C] | 
[V:1] f/e/df | 
[V:2] [D,F,D].[A,DF].[A,DF] | 
[V:1] !accent!f2e | 
[V:2] z.[A,CF].[A,CE] | 
[V:1] (3d//e//d//^c/ d/^d/e/B/ | 
[V:2] z.[E,^G,D].[E,G,D] | 
[V:1] =d2c | 
[V:2] z.[F,A,D].[F,A,C] | 
[V:1] (3A/_B/A/GA | 
[V:2] z[F,C_E][F,CE] | 
[V:1] _Bd!fermata!z & DFx | 
[V:2] _B,2!fermata!z | 
[V:1] A/>^G/EG & zDD |[1 
[V:2] z[E,=B,][E,B,] | 
[V:1] A2 & Cz :|][2 
[V:2] [A,,E,]A,,, :|]  
[V:1] A3 & z.[^CE].[CE] || 
[V:2] z[A,,A,][A,,A,]- ||  
[V:1]  [K:A] c/z//c//dB & =GF=F | 
[V:2]  [K:A] [A,,A,]D,D,, | 
[V:1] ^G/>E/[C3/A3/][G/B/] & Dz2 | 
[V:2] E,,A,,E, | 
[V:1] c/>e/dB & =GF=F | 
[V:2] A,D,D,, | 
[V:1] (3^G/^F/E/[C3/A3/][G/B/] & Dz2 | 
[V:2] E,,A,,E, | 
[V:1] (3.[=G/c/].[G/c/].[G/c/][Fd]!accent![=FB] | 
[V:2] A,D,D,, | 
[V:1] (3.[D/^G/].[D/^F/].[D/E/][C3/A3/][G/B/] | 
[V:2] E,,A,,E, | 
[V:1] (3.[=G/c/].[G/d/].[G/e/][Fd]!accent![=FB] | 
[V:2] A,D,D,, | 
[V:1] (3.[D/^G/].[D/^F/].[D/E/][C2A2] ]|:  
[V:2] E,,A,,A, ]|:  
[V:1] [A/c/]z//[A//c//].[Bd].[GB] | 
[V:2] C/z//C//.D.B, & F,3 | 
[V:1] (3!accent![A/c/][G/B/][F/A/].[Bd].[GB] | 
[V:2] (3C/B,/A,/D.B, & F,3 | 
[V:1] [A/c/]z//[A//c//].[Bd].[GB] | 
[V:2] C/z//C//.D.B, & F,3 | 
[V:1] (3[A/c/][G/B/][F/A/][ff'][ff'] | 
[V:2] (3C/B,/A,/[F,,F,][F,,F,] & F,x2 | 
[V:1] [A/c/]z//[A//c//].[Bd].[GB] | 
[V:2] C/z//C//.D.B, & F,3 | 
[V:1] (3[A/c/][G/B/][F/A/].[Bd].[GB] | 
[V:2] (3C/B,/A,/.D.B, & F,3- | 
[V:1] c/^d/e2 & AG2 | 
[V:2] C/B,/-B,2 & F,E,2- | 
[V:1] c/^d< {/f}e=d/ & AG2 | 
[V:2] C/B,/-B,2 & E,E,2 | 
[V:1] c/z//c//dB & =GF=F | 
[V:2] A,D,D,, | 
[V:1] ^G/>E/[C3/A3/][G/B/] & Dz2 | 
[V:2] E,,A,,E, | 
[V:1] c/>e/.d.B & =GF=F | 
[V:2] A,D,D,, | 
[V:1] (3^G/^F/E/[C3/A3/][G/B/] & Dz2 | 
[V:2] E,,A,,E, | 
[V:1] (3[=G/c/][G/c/][G/c/][Fd]!accent![=FB] | 
[V:2] A,D,D,, | 
[V:1] (3.[D/^G/].[D/^F/].[D/E/][C3/A3/][G/B/] | 
[V:2] E,,A,,E, | 
[V:1] (3.[=G/c/].[G/d/].[G/e/][Fd]!accent![=FB] |[1 
[V:2] A,D,D,, | 
[V:1] (3.[D/G/].[D/^F/].[D/E/][C2A2] :|][2 
[V:2] E,,A,,A, :|]  
[V:1] (3.[D/^G/].[D/^F/].[D/E/][CA] |]  
[V:2] E,,[A,,,A,,] |]  


